icon-svg/wifi-dongle.svg

<svg xmlns="http://www.w3.org/2000/svg" fill="#44739e" viewBox="0 0 24 24"><path d="M14.255 6.86 13 8.12a1.422 1.422 0 0 0 0 2.008l.749.749a1.754 1.754 0 0 1 .493 1.514l2.775-2.775a1.42 1.42 0 0 0 0-2.007l-.748-.749a1.423 1.423 0 0 0-2.014 0m.6 1.206-.952.952.361.362.861-.861.38.38-.861.86.5.5-.444.441-1.62-1.616 1.4-1.4zm1.912.562-.416.415-1.171-1.175.415-.416Zm-1.505-1.093a.3.3 0 0 1-.444.032.344.344 0 1 1 .444-.032M11.578 10.4a.306.306 0 0 0-.037.44.345.345 0 1 0 .037-.44m-.546 1.271c.192.267.43.592.605.8a9.7 9.7 0 0 0-.82-.58l-.328-.217-.411.411.217.328a9.5 9.5 0 0 0 .58.821c-.208-.176-.534-.414-.8-.606l-.314-.228-.462.462 2 1.232.409-.409-.277-.425c-.2-.3-.451-.654-.559-.781.127.108.479.362.781.559l.425.277.422-.415-1.232-2-.457.458zm.8708-.5252.4157-.4157 1.1752 1.1752-.4157.4158zm-8.2092 7.2037.4024-.4024.5628.5629-.4023.4023zm1.3944 1.394.4024-.4024.5628.5629-.4023.4023zM16.253 3.35l-9.486 9.487-1.608 1.608.348.348-3.135 3.135 3.7 3.7 3.135-3.135.349.348L20.65 7.747c.733-.733.93-1.723.442-2.211l-2.627-2.628c-.489-.488-1.479-.29-2.212.442M7.755 19.3l-1.77 1.77-1.447-1.447.884-.885-.415-.415.389-.389.415.416.5-.5zm-1.609-1.607-.335.335-.411-.416-.71.711.416.415-.724.724-1.453-1.448L4.7 16.245ZM17.251 7.37a1.761 1.761 0 0 1 0 2.486l-4.868 4.867a1.759 1.759 0 0 1-2.485 0l-.749-.749a1.76 1.76 0 0 1 0-2.486l4.867-4.867a1.761 1.761 0 0 1 2.486 0z"/></svg>

<?xml version="1.0" encoding="UTF-8"?>
<svg width="24px" fill="#44739e" height="24px" viewBox="0 0 24 24" version="1.1" xmlns="http://www.w3.org/2000/svg" xmlns:xlink="http://www.w3.org/1999/xlink">
            <path d="M 14.255,6.86 13,8.12 a 1.422,1.422 0 0 0 0,2.008 l 0.749,0.749 a 1.754,1.754 0 0 1 0.493,1.514 l 2.775,-2.775 a 1.42,1.42 0 0 0 0,-2.007 L 16.269,6.86 a 1.423,1.423 0 0 0 -2.014,0 z m 0.6,1.206 -0.952,0.952 0.361,0.362 0.861,-0.861 0.38,0.38 -0.861,0.86 0.5,0.5 -0.444,0.441 -1.62,-1.616 1.4,-1.4 z M 16.767,8.628 16.351,9.043 15.18,7.868 15.595,7.452 Z M 15.262,7.535 A 0.3,0.3 0 0 1 14.818,7.567 0.344,0.344 0 1 1 15.262,7.535 Z M 11.578,10.4 a 0.306,0.306 0 0 0 -0.037,0.44 0.345,0.345 0 1 0 0.037,-0.44 z m -0.546,1.271 c 0.192,0.267 0.43,0.592 0.605,0.8 a 9.71,9.71 0 0 0 -0.82,-0.58 l -0.328,-0.217 -0.411,0.411 0.217,0.328 a 9.513,9.513 0 0 0 0.58,0.821 c -0.208,-0.176 -0.534,-0.414 -0.8,-0.606 L 9.761,12.4 l -0.462,0.462 2,1.232 0.409,-0.409 -0.277,-0.425 c -0.2,-0.3 -0.451,-0.654 -0.559,-0.781 0.127,0.108 0.479,0.362 0.781,0.559 l 0.425,0.277 0.422,-0.415 -1.232,-2 -0.457,0.458 z m 0.870752,-0.525153 0.415779,-0.415778 1.175212,1.175211 -0.415779,0.415779 z m -8.2091429,7.203643 0.4023437,-0.402344 0.562857,0.562857 -0.4023437,0.402344 z m 1.3944142,1.394001 0.4023438,-0.402344 0.562857,0.562857 -0.4023438,0.402344 z M 16.253,3.35 l -9.486,9.487 -1.608,1.608 0.348,0.348 -3.135,3.135 3.7,3.7 3.135,-3.135 0.349,0.348 L 20.65,7.747 C 21.383,7.014 21.58,6.024 21.092,5.536 L 18.465,2.908 C 17.976,2.42 16.986,2.618 16.253,3.35 Z M 7.755,19.3 5.985,21.07 4.538,19.623 5.422,18.738 5.007,18.323 l 0.389,-0.389 0.415,0.416 0.5,-0.5 z M 6.146,17.693 5.811,18.028 5.4,17.612 4.69,18.323 5.106,18.738 4.382,19.462 2.929,18.014 4.7,16.245 Z M 17.251,7.37 a 1.761,1.761 0 0 1 0,2.486 l -4.868,4.867 a 1.759,1.759 0 0 1 -2.485,0 L 9.149,13.974 a 1.76,1.76 0 0 1 0,-2.486 l 4.867,-4.867 a 1.761,1.761 0 0 1 2.486,0 z"/>

</svg>
